X:3
T:Evening so clear - huggins
C:Taken down from W. Huggins by F.W.B. Nov. 1888.
%%VWML:SBG-1-1-207-0
F:http://www.vwml.org/record/SBG/1/1/207
Z:Original Sibleius Transcription by Martin and Shan Graebe
M:4/4
L:1/8
K:F
d2 | c4 A2 F2 | F4 G2 A2 | B4 c2 A2 | G4> d4 | c4 A2 F2 |F4 G2 A2|B4 c2 A2 | 
G4> C4 | (F2 G2) A2 B2 |(c2 d2) c2 A2 | B2>c2 d2 d2 |
 c4> c4 | f4 c2>B2 |A6 c>d | (c2 B2) A2 G2 | F6 z2||
T:Evening so clear - peake
T:Taken down from J. Peake who learned it in 1840 from a miner from the W. of Cornwall, 
T:taken down 1891 by H.Fl.S.
M:4/4
L:1/8
K:F
d2 | c2 AF G2 GA | Bd cA G2 d2 | c2 AF G2 GA | Bd cA G2 |
F2 |FG AB cd cA |Bc ed c2 fd | dc cA B2 AA | AG FE F2 ||
T:Evening so clear - musical miscellany
T:“Susanna’s Complaint” from “Musical Miscellany” I. p.62
M:3/4
L:1/8
K:G
D2 | D2 G2 G2 | G2>F2 E2 | F2 A2 A2 | A4 G2 | B2>A2 G2 |E2>F2 G2 | D2 G2 G2 | G4 D2 | D2 G2 G2 |
G2>F2 E2 | FG A2 A2 | A4 G2 | B2>A2 G2 |E2>F2 G2 | D2 G2 G2 | G4 G2 | B2 d2 d2 |d2 cB AG | 
F2 e2 e2 | e4 c2 | B2>c2 d2 |d2 cB AG | G2 g2 f2 | g4 d2 | e2>f2 g2 |
ed cB AG | FG A2 A2 | A4 G2 | B2>A2 G2 |E2>F2 G2 | D2 G2 GA | G4 z2||


